
;( Generated on: 2014-10-11 17:21:26 )
;Initialize
G90 ; use absolute coordinates
G21 ; set units to millimeters
G1 Z10 F200 ; Lift Z before homing XY
G1 Z40 F200 ; move to cutting height
G4 P1 ; Pause 1ms to force movement sychronization
M42 P9 S255 ; Energize Vreg


;Start here

G0 F5000
G0 X17.352 Y21.760
G4 P1 ; Pause 1ms to force movement sychronization
M42 P31 S255 ; Laser On
G4 P50 ; Delay in milliseconds
G1 F50
G1 X17.352 Y21.760
G1 X17.352 Y22.111
G1 X17.852 Y22.111
G1 X17.852 Y21.760
G1 X17.352 Y21.760
G4 P1 ; Pause 1ms to force movement sychronization
M42 P31 S0 ; laser off

G0 F5000
G0 X17.352 Y21.161
G4 P1 ; Pause 1ms to force movement sychronization
M42 P31 S255 ; Laser On
G4 P50 ; Delay in milliseconds
G1 F50
G1 X17.352 Y21.161
G1 X17.352 Y21.511
G1 X17.852 Y21.511
G1 X17.852 Y21.161
G1 X17.352 Y21.161
G4 P1 ; Pause 1ms to force movement sychronization
M42 P31 S0 ; laser off

G0 F5000
G0 X39.933 Y21.618
G4 P1 ; Pause 1ms to force movement sychronization
M42 P31 S255 ; Laser On
G4 P50 ; Delay in milliseconds
G1 F50
G1 X39.933 Y21.618
G1 X39.933 Y21.968
G1 X40.433 Y21.968
G1 X40.433 Y21.618
G1 X39.933 Y21.618
G4 P1 ; Pause 1ms to force movement sychronization
M42 P31 S0 ; laser off

G0 F5000
G0 X39.933 Y21.018
G4 P1 ; Pause 1ms to force movement sychronization
M42 P31 S255 ; Laser On
G4 P50 ; Delay in milliseconds
G1 F50
G1 X39.933 Y21.018
G1 X39.933 Y21.369
G1 X40.433 Y21.369
G1 X40.433 Y21.018
G1 X39.933 Y21.018
G4 P1 ; Pause 1ms to force movement sychronization
M42 P31 S0 ; laser off

G0 F5000
G0 X40.771 Y21.151
G4 P1 ; Pause 1ms to force movement sychronization
M42 P31 S255 ; Laser On
G4 P50 ; Delay in milliseconds
G1 F50
G1 X40.771 Y21.151
G1 X40.771 Y21.501
G1 X41.271 Y21.501
G1 X41.271 Y21.151
G1 X40.771 Y21.151
G4 P1 ; Pause 1ms to force movement sychronization
M42 P31 S0 ; laser off

G0 F5000
G0 X40.771 Y20.551
G4 P1 ; Pause 1ms to force movement sychronization
M42 P31 S255 ; Laser On
G4 P50 ; Delay in milliseconds
G1 F50
G1 X40.771 Y20.551
G1 X40.771 Y20.902
G1 X41.271 Y20.902
G1 X41.271 Y20.551
G1 X40.771 Y20.551
G4 P1 ; Pause 1ms to force movement sychronization
M42 P31 S0 ; laser off

G0 F5000
G0 X27.943 Y22.305
G4 P1 ; Pause 1ms to force movement sychronization
M42 P31 S255 ; Laser On
G4 P50 ; Delay in milliseconds
G1 F50
G1 X27.943 Y22.305
G1 X27.943 Y22.805
G1 X28.293 Y22.805
G1 X28.293 Y22.305
G1 X27.943 Y22.305
G4 P1 ; Pause 1ms to force movement sychronization
M42 P31 S0 ; laser off

G0 F5000
G0 X28.542 Y22.305
G4 P1 ; Pause 1ms to force movement sychronization
M42 P31 S255 ; Laser On
G4 P50 ; Delay in milliseconds
G1 F50
G1 X28.542 Y22.305
G1 X28.542 Y22.805
G1 X28.892 Y22.805
G1 X28.892 Y22.305
G1 X28.542 Y22.305
G4 P1 ; Pause 1ms to force movement sychronization
M42 P31 S0 ; laser off

G0 F5000
G0 X41.308 Y18.896
G4 P1 ; Pause 1ms to force movement sychronization
M42 P31 S255 ; Laser On
G4 P50 ; Delay in milliseconds
G1 F50
G1 X41.308 Y18.896
G1 X41.308 Y19.397
G1 X41.659 Y19.397
G1 X41.659 Y18.896
G1 X41.308 Y18.896
G4 P1 ; Pause 1ms to force movement sychronization
M42 P31 S0 ; laser off

G0 F5000
G0 X41.907 Y18.896
G4 P1 ; Pause 1ms to force movement sychronization
M42 P31 S255 ; Laser On
G4 P50 ; Delay in milliseconds
G1 F50
G1 X41.907 Y18.896
G1 X41.907 Y19.397
G1 X42.258 Y19.397
G1 X42.258 Y18.896
G1 X41.907 Y18.896
G4 P1 ; Pause 1ms to force movement sychronization
M42 P31 S0 ; laser off

G0 F5000
G0 X41.558 Y21.694
G4 P1 ; Pause 1ms to force movement sychronization
M42 P31 S255 ; Laser On
G4 P50 ; Delay in milliseconds
G1 F50
G1 X41.558 Y21.694
G1 X41.558 Y22.045
G1 X42.059 Y22.045
G1 X42.059 Y21.694
G1 X41.558 Y21.694
G4 P1 ; Pause 1ms to force movement sychronization
M42 P31 S0 ; laser off

G0 F5000
G0 X41.558 Y21.095
G4 P1 ; Pause 1ms to force movement sychronization
M42 P31 S255 ; Laser On
G4 P50 ; Delay in milliseconds
G1 F50
G1 X41.558 Y21.095
G1 X41.558 Y21.445
G1 X42.059 Y21.445
G1 X42.059 Y21.095
G1 X41.558 Y21.095
G4 P1 ; Pause 1ms to force movement sychronization
M42 P31 S0 ; laser off

G0 F5000
G0 X24.362 Y15.903
G4 P1 ; Pause 1ms to force movement sychronization
M42 P31 S255 ; Laser On
G4 P50 ; Delay in milliseconds
G1 F50
G1 X24.362 Y15.903
G1 X24.362 Y16.253
G1 X24.863 Y16.253
G1 X24.863 Y15.903
G1 X24.362 Y15.903
G4 P1 ; Pause 1ms to force movement sychronization
M42 P31 S0 ; laser off

G0 F5000
G0 X24.362 Y15.303
G4 P1 ; Pause 1ms to force movement sychronization
M42 P31 S255 ; Laser On
G4 P50 ; Delay in milliseconds
G1 F50
G1 X24.362 Y15.303
G1 X24.362 Y15.654
G1 X24.863 Y15.654
G1 X24.863 Y15.303
G1 X24.362 Y15.303
G4 P1 ; Pause 1ms to force movement sychronization
M42 P31 S0 ; laser off

G0 F5000
G0 X19.586 Y19.155
G4 P1 ; Pause 1ms to force movement sychronization
M42 P31 S255 ; Laser On
G4 P50 ; Delay in milliseconds
G1 F50
G1 X19.586 Y19.155
G1 X19.586 Y19.656
G1 X19.936 Y19.656
G1 X19.936 Y19.155
G1 X19.586 Y19.155
G4 P1 ; Pause 1ms to force movement sychronization
M42 P31 S0 ; laser off

G0 F5000
G0 X18.986 Y19.155
G4 P1 ; Pause 1ms to force movement sychronization
M42 P31 S255 ; Laser On
G4 P50 ; Delay in milliseconds
G1 F50
G1 X18.986 Y19.155
G1 X18.986 Y19.656
G1 X19.337 Y19.656
G1 X19.337 Y19.155
G1 X18.986 Y19.155
G4 P1 ; Pause 1ms to force movement sychronization
M42 P31 S0 ; laser off

G0 F5000
G0 X23.194 Y15.903
G4 P1 ; Pause 1ms to force movement sychronization
M42 P31 S255 ; Laser On
G4 P50 ; Delay in milliseconds
G1 F50
G1 X23.194 Y15.903
G1 X23.194 Y16.253
G1 X23.694 Y16.253
G1 X23.694 Y15.903
G1 X23.194 Y15.903
G4 P1 ; Pause 1ms to force movement sychronization
M42 P31 S0 ; laser off

G0 F5000
G0 X23.194 Y15.303
G4 P1 ; Pause 1ms to force movement sychronization
M42 P31 S255 ; Laser On
G4 P50 ; Delay in milliseconds
G1 F50
G1 X23.194 Y15.303
G1 X23.194 Y15.654
G1 X23.694 Y15.654
G1 X23.694 Y15.303
G1 X23.194 Y15.303
G4 P1 ; Pause 1ms to force movement sychronization
M42 P31 S0 ; laser off

G0 F5000
G0 X19.535 Y21.137
G4 P1 ; Pause 1ms to force movement sychronization
M42 P31 S255 ; Laser On
G4 P50 ; Delay in milliseconds
G1 F50
G1 X19.535 Y21.137
G1 X19.535 Y21.637
G1 X19.886 Y21.637
G1 X19.886 Y21.137
G1 X19.535 Y21.137
G4 P1 ; Pause 1ms to force movement sychronization
M42 P31 S0 ; laser off

G0 F5000
G0 X18.936 Y21.137
G4 P1 ; Pause 1ms to force movement sychronization
M42 P31 S255 ; Laser On
G4 P50 ; Delay in milliseconds
G1 F50
G1 X18.936 Y21.137
G1 X18.936 Y21.637
G1 X19.286 Y21.637
G1 X19.286 Y21.137
G1 X18.936 Y21.137
G4 P1 ; Pause 1ms to force movement sychronization
M42 P31 S0 ; laser off

G0 F5000
G0 X24.134 Y23.294
G4 P1 ; Pause 1ms to force movement sychronization
M42 P31 S255 ; Laser On
G4 P50 ; Delay in milliseconds
G1 F50
G1 X24.134 Y23.294
G1 X24.134 Y23.645
G1 X24.634 Y23.645
G1 X24.634 Y23.294
G1 X24.134 Y23.294
G4 P1 ; Pause 1ms to force movement sychronization
M42 P31 S0 ; laser off

G0 F5000
G0 X24.134 Y23.894
G4 P1 ; Pause 1ms to force movement sychronization
M42 P31 S255 ; Laser On
G4 P50 ; Delay in milliseconds
G1 F50
G1 X24.134 Y23.894
G1 X24.134 Y24.244
G1 X24.634 Y24.244
G1 X24.634 Y23.894
G1 X24.134 Y23.894
G4 P1 ; Pause 1ms to force movement sychronization
M42 P31 S0 ; laser off

G0 F5000
G0 X25.734 Y23.294
G4 P1 ; Pause 1ms to force movement sychronization
M42 P31 S255 ; Laser On
G4 P50 ; Delay in milliseconds
G1 F50
G1 X25.734 Y23.294
G1 X25.734 Y23.645
G1 X26.234 Y23.645
G1 X26.234 Y23.294
G1 X25.734 Y23.294
G4 P1 ; Pause 1ms to force movement sychronization
M42 P31 S0 ; laser off

G0 F5000
G0 X25.734 Y23.894
G4 P1 ; Pause 1ms to force movement sychronization
M42 P31 S255 ; Laser On
G4 P50 ; Delay in milliseconds
G1 F50
G1 X25.734 Y23.894
G1 X25.734 Y24.244
G1 X26.234 Y24.244
G1 X26.234 Y23.894
G1 X25.734 Y23.894
G4 P1 ; Pause 1ms to force movement sychronization
M42 P31 S0 ; laser off

G0 F5000
G0 X22.965 Y23.498
G4 P1 ; Pause 1ms to force movement sychronization
M42 P31 S255 ; Laser On
G4 P50 ; Delay in milliseconds
G1 F50
G1 X22.965 Y23.498
G1 X22.965 Y23.848
G1 X23.466 Y23.848
G1 X23.466 Y23.498
G1 X22.965 Y23.498
G4 P1 ; Pause 1ms to force movement sychronization
M42 P31 S0 ; laser off

G0 F5000
G0 X22.965 Y24.097
G4 P1 ; Pause 1ms to force movement sychronization
M42 P31 S255 ; Laser On
G4 P50 ; Delay in milliseconds
G1 F50
G1 X22.965 Y24.097
G1 X22.965 Y24.447
G1 X23.466 Y24.447
G1 X23.466 Y24.097
G1 X22.965 Y24.097
G4 P1 ; Pause 1ms to force movement sychronization
M42 P31 S0 ; laser off

G0 F5000
G0 X24.947 Y23.294
G4 P1 ; Pause 1ms to force movement sychronization
M42 P31 S255 ; Laser On
G4 P50 ; Delay in milliseconds
G1 F50
G1 X24.947 Y23.294
G1 X24.947 Y23.645
G1 X25.447 Y23.645
G1 X25.447 Y23.294
G1 X24.947 Y23.294
G4 P1 ; Pause 1ms to force movement sychronization
M42 P31 S0 ; laser off

G0 F5000
G0 X24.947 Y23.894
G4 P1 ; Pause 1ms to force movement sychronization
M42 P31 S255 ; Laser On
G4 P50 ; Delay in milliseconds
G1 F50
G1 X24.947 Y23.894
G1 X24.947 Y24.244
G1 X25.447 Y24.244
G1 X25.447 Y23.894
G1 X24.947 Y23.894
G4 P1 ; Pause 1ms to force movement sychronization
M42 P31 S0 ; laser off

G0 F5000
G0 X27.943 Y21.467
G4 P1 ; Pause 1ms to force movement sychronization
M42 P31 S255 ; Laser On
G4 P50 ; Delay in milliseconds
G1 F50
G1 X27.943 Y21.467
G1 X27.943 Y21.967
G1 X28.293 Y21.967
G1 X28.293 Y21.467
G1 X27.943 Y21.467
G4 P1 ; Pause 1ms to force movement sychronization
M42 P31 S0 ; laser off

G0 F5000
G0 X28.542 Y21.467
G4 P1 ; Pause 1ms to force movement sychronization
M42 P31 S255 ; Laser On
G4 P50 ; Delay in milliseconds
G1 F50
G1 X28.542 Y21.467
G1 X28.542 Y21.967
G1 X28.892 Y21.967
G1 X28.892 Y21.467
G1 X28.542 Y21.467
G4 P1 ; Pause 1ms to force movement sychronization
M42 P31 S0 ; laser off

G0 F5000
G0 X18.139 Y17.605
G4 P1 ; Pause 1ms to force movement sychronization
M42 P31 S255 ; Laser On
G4 P50 ; Delay in milliseconds
G1 F50
G1 X18.139 Y17.605
G1 X18.139 Y17.955
G1 X18.640 Y17.955
G1 X18.640 Y17.605
G1 X18.139 Y17.605
G4 P1 ; Pause 1ms to force movement sychronization
M42 P31 S0 ; laser off

G0 F5000
G0 X18.139 Y17.005
G4 P1 ; Pause 1ms to force movement sychronization
M42 P31 S255 ; Laser On
G4 P50 ; Delay in milliseconds
G1 F50
G1 X18.139 Y17.005
G1 X18.139 Y17.356
G1 X18.640 Y17.356
G1 X18.640 Y17.005
G1 X18.139 Y17.005
G4 P1 ; Pause 1ms to force movement sychronization
M42 P31 S0 ; laser off

G0 F5000
G0 X26.979 Y22.990
G4 P1 ; Pause 1ms to force movement sychronization
M42 P31 S255 ; Laser On
G4 P50 ; Delay in milliseconds
G1 F50
G1 X26.979 Y22.990
G1 X26.979 Y23.340
G1 X27.479 Y23.340
G1 X27.479 Y22.990
G1 X26.979 Y22.990
G4 P1 ; Pause 1ms to force movement sychronization
M42 P31 S0 ; laser off

G0 F5000
G0 X26.979 Y22.390
G4 P1 ; Pause 1ms to force movement sychronization
M42 P31 S255 ; Laser On
G4 P50 ; Delay in milliseconds
G1 F50
G1 X26.979 Y22.390
G1 X26.979 Y22.741
G1 X27.479 Y22.741
G1 X27.479 Y22.390
G1 X26.979 Y22.390
G4 P1 ; Pause 1ms to force movement sychronization
M42 P31 S0 ; laser off

G0 F5000
G0 X27.841 Y20.629
G4 P1 ; Pause 1ms to force movement sychronization
M42 P31 S255 ; Laser On
G4 P50 ; Delay in milliseconds
G1 F50
G1 X27.841 Y20.629
G1 X27.841 Y21.129
G1 X28.191 Y21.129
G1 X28.191 Y20.629
G1 X27.841 Y20.629
G4 P1 ; Pause 1ms to force movement sychronization
M42 P31 S0 ; laser off

G0 F5000
G0 X28.440 Y20.629
G4 P1 ; Pause 1ms to force movement sychronization
M42 P31 S255 ; Laser On
G4 P50 ; Delay in milliseconds
G1 F50
G1 X28.440 Y20.629
G1 X28.440 Y21.129
G1 X28.791 Y21.129
G1 X28.791 Y20.629
G1 X28.440 Y20.629
G4 P1 ; Pause 1ms to force movement sychronization
M42 P31 S0 ; laser off

G0 F5000
G0 X28.578 Y19.054
G4 P1 ; Pause 1ms to force movement sychronization
M42 P31 S255 ; Laser On
G4 P50 ; Delay in milliseconds
G1 F50
G1 X28.578 Y19.054
G1 X28.578 Y19.554
G1 X28.928 Y19.554
G1 X28.928 Y19.054
G1 X28.578 Y19.054
G4 P1 ; Pause 1ms to force movement sychronization
M42 P31 S0 ; laser off

G0 F5000
G0 X29.177 Y19.054
G4 P1 ; Pause 1ms to force movement sychronization
M42 P31 S255 ; Laser On
G4 P50 ; Delay in milliseconds
G1 F50
G1 X29.177 Y19.054
G1 X29.177 Y19.554
G1 X29.527 Y19.554
G1 X29.527 Y19.054
G1 X29.177 Y19.054
G4 P1 ; Pause 1ms to force movement sychronization
M42 P31 S0 ; laser off

G0 F5000
G0 X29.138 Y14.735
G4 P1 ; Pause 1ms to force movement sychronization
M42 P31 S255 ; Laser On
G4 P50 ; Delay in milliseconds
G1 F50
G1 X29.138 Y14.735
G1 X29.138 Y15.085
G1 X29.638 Y15.085
G1 X29.638 Y14.735
G1 X29.138 Y14.735
G4 P1 ; Pause 1ms to force movement sychronization
M42 P31 S0 ; laser off

G0 F5000
G0 X29.138 Y14.135
G4 P1 ; Pause 1ms to force movement sychronization
M42 P31 S255 ; Laser On
G4 P50 ; Delay in milliseconds
G1 F50
G1 X29.138 Y14.135
G1 X29.138 Y14.486
G1 X29.638 Y14.486
G1 X29.638 Y14.135
G1 X29.138 Y14.135
G4 P1 ; Pause 1ms to force movement sychronization
M42 P31 S0 ; laser off

G0 F5000
G0 X28.782 Y16.005
G4 P1 ; Pause 1ms to force movement sychronization
M42 P31 S255 ; Laser On
G4 P50 ; Delay in milliseconds
G1 F50
G1 X28.782 Y16.005
G1 X28.782 Y16.355
G1 X29.282 Y16.355
G1 X29.282 Y16.005
G1 X28.782 Y16.005
G4 P1 ; Pause 1ms to force movement sychronization
M42 P31 S0 ; laser off

G0 F5000
G0 X28.782 Y15.405
G4 P1 ; Pause 1ms to force movement sychronization
M42 P31 S255 ; Laser On
G4 P50 ; Delay in milliseconds
G1 F50
G1 X28.782 Y15.405
G1 X28.782 Y15.756
G1 X29.282 Y15.756
G1 X29.282 Y15.405
G1 X28.782 Y15.405
G4 P1 ; Pause 1ms to force movement sychronization
M42 P31 S0 ; laser off

G0 F5000
G0 X27.913 Y17.269
G4 P1 ; Pause 1ms to force movement sychronization
M42 P31 S255 ; Laser On
G4 P50 ; Delay in milliseconds
G1 F50
G1 X27.913 Y17.269
G1 X27.913 Y17.620
G1 X28.414 Y17.620
G1 X28.414 Y17.269
G1 X27.913 Y17.269
G4 P1 ; Pause 1ms to force movement sychronization
M42 P31 S0 ; laser off

G0 F5000
G0 X27.913 Y16.670
G4 P1 ; Pause 1ms to force movement sychronization
M42 P31 S255 ; Laser On
G4 P50 ; Delay in milliseconds
G1 F50
G1 X27.913 Y16.670
G1 X27.913 Y17.021
G1 X28.414 Y17.021
G1 X28.414 Y16.670
G1 X27.913 Y16.670
G4 P1 ; Pause 1ms to force movement sychronization
M42 P31 S0 ; laser off

G0 F5000
G0 X27.004 Y15.293
G4 P1 ; Pause 1ms to force movement sychronization
M42 P31 S255 ; Laser On
G4 P50 ; Delay in milliseconds
G1 F50
G1 X27.004 Y15.293
G1 X27.004 Y15.644
G1 X27.504 Y15.644
G1 X27.504 Y15.293
G1 X27.004 Y15.293
G4 P1 ; Pause 1ms to force movement sychronization
M42 P31 S0 ; laser off

G0 F5000
G0 X27.004 Y15.893
G4 P1 ; Pause 1ms to force movement sychronization
M42 P31 S255 ; Laser On
G4 P50 ; Delay in milliseconds
G1 F50
G1 X27.004 Y15.893
G1 X27.004 Y16.243
G1 X27.504 Y16.243
G1 X27.504 Y15.893
G1 X27.004 Y15.893
G4 P1 ; Pause 1ms to force movement sychronization
M42 P31 S0 ; laser off

G0 F5000
G0 X26.217 Y15.293
G4 P1 ; Pause 1ms to force movement sychronization
M42 P31 S255 ; Laser On
G4 P50 ; Delay in milliseconds
G1 F50
G1 X26.217 Y15.293
G1 X26.217 Y15.644
G1 X26.717 Y15.644
G1 X26.717 Y15.293
G1 X26.217 Y15.293
G4 P1 ; Pause 1ms to force movement sychronization
M42 P31 S0 ; laser off

G0 F5000
G0 X26.217 Y15.893
G4 P1 ; Pause 1ms to force movement sychronization
M42 P31 S255 ; Laser On
G4 P50 ; Delay in milliseconds
G1 F50
G1 X26.217 Y15.893
G1 X26.217 Y16.243
G1 X26.717 Y16.243
G1 X26.717 Y15.893
G1 X26.217 Y15.893
G4 P1 ; Pause 1ms to force movement sychronization
M42 P31 S0 ; laser off

G0 F5000
G0 X30.204 Y14.150
G4 P1 ; Pause 1ms to force movement sychronization
M42 P31 S255 ; Laser On
G4 P50 ; Delay in milliseconds
G1 F50
G1 X30.204 Y14.150
G1 X30.204 Y14.501
G1 X30.705 Y14.501
G1 X30.705 Y14.150
G1 X30.204 Y14.150
G4 P1 ; Pause 1ms to force movement sychronization
M42 P31 S0 ; laser off

G0 F5000
G0 X30.204 Y14.750
G4 P1 ; Pause 1ms to force movement sychronization
M42 P31 S255 ; Laser On
G4 P50 ; Delay in milliseconds
G1 F50
G1 X30.204 Y14.750
G1 X30.204 Y15.100
G1 X30.705 Y15.100
G1 X30.705 Y14.750
G1 X30.204 Y14.750
G4 P1 ; Pause 1ms to force movement sychronization
M42 P31 S0 ; laser off

G0 F5000
G0 X34.949 Y14.475
G4 P1 ; Pause 1ms to force movement sychronization
M42 P31 S255 ; Laser On
G4 P50 ; Delay in milliseconds
G1 F50
G1 X34.949 Y14.475
G1 X34.949 Y14.826
G1 X35.450 Y14.826
G1 X35.450 Y14.475
G1 X34.949 Y14.475
G4 P1 ; Pause 1ms to force movement sychronization
M42 P31 S0 ; laser off

G0 F5000
G0 X34.949 Y13.876
G4 P1 ; Pause 1ms to force movement sychronization
M42 P31 S255 ; Laser On
G4 P50 ; Delay in milliseconds
G1 F50
G1 X34.949 Y13.876
G1 X34.949 Y14.227
G1 X35.450 Y14.227
G1 X35.450 Y13.876
G1 X34.949 Y13.876
G4 P1 ; Pause 1ms to force movement sychronization
M42 P31 S0 ; laser off

G0 F5000
G0 X32.440 Y14.481
G4 P1 ; Pause 1ms to force movement sychronization
M42 P31 S255 ; Laser On
G4 P50 ; Delay in milliseconds
G1 F50
G1 X32.440 Y14.481
G1 X32.440 Y14.831
G1 X32.940 Y14.831
G1 X32.940 Y14.481
G1 X32.440 Y14.481
G4 P1 ; Pause 1ms to force movement sychronization
M42 P31 S0 ; laser off

G0 F5000
G0 X32.440 Y13.881
G4 P1 ; Pause 1ms to force movement sychronization
M42 P31 S255 ; Laser On
G4 P50 ; Delay in milliseconds
G1 F50
G1 X32.440 Y13.881
G1 X32.440 Y14.232
G1 X32.940 Y14.232
G1 X32.940 Y13.881
G1 X32.440 Y13.881
G4 P1 ; Pause 1ms to force movement sychronization
M42 P31 S0 ; laser off

G0 F5000
G0 X33.705 Y14.475
G4 P1 ; Pause 1ms to force movement sychronization
M42 P31 S255 ; Laser On
G4 P50 ; Delay in milliseconds
G1 F50
G1 X33.705 Y14.475
G1 X33.705 Y14.826
G1 X34.205 Y14.826
G1 X34.205 Y14.475
G1 X33.705 Y14.475
G4 P1 ; Pause 1ms to force movement sychronization
M42 P31 S0 ; laser off

G0 F5000
G0 X33.705 Y13.876
G4 P1 ; Pause 1ms to force movement sychronization
M42 P31 S255 ; Laser On
G4 P50 ; Delay in milliseconds
G1 F50
G1 X33.705 Y13.876
G1 X33.705 Y14.227
G1 X34.205 Y14.227
G1 X34.205 Y13.876
G1 X33.705 Y13.876
G4 P1 ; Pause 1ms to force movement sychronization
M42 P31 S0 ; laser off

G0 F5000
G0 X30.452 Y20.928
G4 P1 ; Pause 1ms to force movement sychronization
M42 P31 S255 ; Laser On
G4 P50 ; Delay in milliseconds
G1 F50
G1 X30.452 Y20.928
G1 X30.452 Y21.429
G1 X30.803 Y21.429
G1 X30.803 Y20.928
G1 X30.452 Y20.928
G4 P1 ; Pause 1ms to force movement sychronization
M42 P31 S0 ; laser off

G0 F5000
G0 X29.853 Y20.928
G4 P1 ; Pause 1ms to force movement sychronization
M42 P31 S255 ; Laser On
G4 P50 ; Delay in milliseconds
G1 F50
G1 X29.853 Y20.928
G1 X29.853 Y21.429
G1 X30.203 Y21.429
G1 X30.203 Y20.928
G1 X29.853 Y20.928
G4 P1 ; Pause 1ms to force movement sychronization
M42 P31 S0 ; laser off

G0 F5000
G0 X30.457 Y21.772
G4 P1 ; Pause 1ms to force movement sychronization
M42 P31 S255 ; Laser On
G4 P50 ; Delay in milliseconds
G1 F50
G1 X30.457 Y21.772
G1 X30.457 Y22.272
G1 X30.808 Y22.272
G1 X30.808 Y21.772
G1 X30.457 Y21.772
G4 P1 ; Pause 1ms to force movement sychronization
M42 P31 S0 ; laser off

G0 F5000
G0 X29.858 Y21.772
G4 P1 ; Pause 1ms to force movement sychronization
M42 P31 S255 ; Laser On
G4 P50 ; Delay in milliseconds
G1 F50
G1 X29.858 Y21.772
G1 X29.858 Y22.272
G1 X30.208 Y22.272
G1 X30.208 Y21.772
G1 X29.858 Y21.772
G4 P1 ; Pause 1ms to force movement sychronization
M42 P31 S0 ; laser off

G0 F5000
G0 X38.561 Y21.760
G4 P1 ; Pause 1ms to force movement sychronization
M42 P31 S255 ; Laser On
G4 P50 ; Delay in milliseconds
G1 F50
G1 X38.561 Y21.760
G1 X38.561 Y22.111
G1 X39.061 Y22.111
G1 X39.061 Y21.760
G1 X38.561 Y21.760
G4 P1 ; Pause 1ms to force movement sychronization
M42 P31 S0 ; laser off

G0 F5000
G0 X38.561 Y21.161
G4 P1 ; Pause 1ms to force movement sychronization
M42 P31 S255 ; Laser On
G4 P50 ; Delay in milliseconds
G1 F50
G1 X38.561 Y21.161
G1 X38.561 Y21.511
G1 X39.061 Y21.511
G1 X39.061 Y21.161
G1 X38.561 Y21.161
G4 P1 ; Pause 1ms to force movement sychronization
M42 P31 S0 ; laser off

G0 F5000
G0 X38.407 Y18.825
G4 P1 ; Pause 1ms to force movement sychronization
M42 P31 S255 ; Laser On
G4 P50 ; Delay in milliseconds
G1 F50
G1 X38.407 Y18.825
G1 X38.407 Y19.326
G1 X38.758 Y19.326
G1 X38.758 Y18.825
G1 X38.407 Y18.825
G4 P1 ; Pause 1ms to force movement sychronization
M42 P31 S0 ; laser off

G0 F5000
G0 X39.007 Y18.825
G4 P1 ; Pause 1ms to force movement sychronization
M42 P31 S255 ; Laser On
G4 P50 ; Delay in milliseconds
G1 F50
G1 X39.007 Y18.825
G1 X39.007 Y19.326
G1 X39.357 Y19.326
G1 X39.357 Y18.825
G1 X39.007 Y18.825
G4 P1 ; Pause 1ms to force movement sychronization
M42 P31 S0 ; laser off

G0 F5000
G0 X23.825 Y25.248
G4 P1 ; Pause 1ms to force movement sychronization
M42 P31 S255 ; Laser On
G4 P50 ; Delay in milliseconds
G1 F50
G1 X23.825 Y25.248
G1 X23.825 Y25.806
G1 X24.435 Y25.806
G1 X24.435 Y25.248
G1 X23.825 Y25.248
G4 P1 ; Pause 1ms to force movement sychronization
M42 P31 S0 ; laser off

G0 F5000
G0 X23.825 Y26.772
G4 P1 ; Pause 1ms to force movement sychronization
M42 P31 S255 ; Laser On
G4 P50 ; Delay in milliseconds
G1 F50
G1 X23.825 Y26.772
G1 X23.825 Y27.330
G1 X24.435 Y27.330
G1 X24.435 Y26.772
G1 X23.825 Y26.772
G4 P1 ; Pause 1ms to force movement sychronization
M42 P31 S0 ; laser off

G0 F5000
G0 X18.669 Y26.746
G4 P1 ; Pause 1ms to force movement sychronization
M42 P31 S255 ; Laser On
G4 P50 ; Delay in milliseconds
G1 F50
G1 X18.669 Y26.746
G1 X18.669 Y27.305
G1 X19.279 Y27.305
G1 X19.279 Y26.746
G1 X18.669 Y26.746
G4 P1 ; Pause 1ms to force movement sychronization
M42 P31 S0 ; laser off

G0 F5000
G0 X18.669 Y25.222
G4 P1 ; Pause 1ms to force movement sychronization
M42 P31 S255 ; Laser On
G4 P50 ; Delay in milliseconds
G1 F50
G1 X18.669 Y25.222
G1 X18.669 Y25.781
G1 X19.279 Y25.781
G1 X19.279 Y25.222
G1 X18.669 Y25.222
G4 P1 ; Pause 1ms to force movement sychronization
M42 P31 S0 ; laser off

G0 F5000
G0 X42.370 Y21.111
G4 P1 ; Pause 1ms to force movement sychronization
M42 P31 S255 ; Laser On
G4 P50 ; Delay in milliseconds
G1 F50
G1 X42.370 Y21.111
G1 X42.370 Y21.612
G1 X42.720 Y21.612
G1 X42.720 Y21.111
G1 X42.370 Y21.111
G4 P1 ; Pause 1ms to force movement sychronization
M42 P31 S0 ; laser off

G0 F5000
G0 X42.969 Y21.111
G4 P1 ; Pause 1ms to force movement sychronization
M42 P31 S255 ; Laser On
G4 P50 ; Delay in milliseconds
G1 F50
G1 X42.969 Y21.111
G1 X42.969 Y21.612
G1 X43.320 Y21.612
G1 X43.320 Y21.111
G1 X42.969 Y21.111
G4 P1 ; Pause 1ms to force movement sychronization
M42 P31 S0 ; laser off

G0 F5000
G0 X20.648 Y21.460
G4 P1 ; Pause 1ms to force movement sychronization
M42 P31 S255 ; Laser On
G4 P50 ; Delay in milliseconds
G1 F50
G1 X20.648 Y21.460
G1 X20.648 Y21.511
G1 X21.344 Y21.511
G1 X21.344 Y21.460
G1 X20.648 Y21.460
G4 P1 ; Pause 1ms to force movement sychronization
M42 P31 S0 ; laser off

G0 F5000
G0 X20.648 Y20.960
G4 P1 ; Pause 1ms to force movement sychronization
M42 P31 S255 ; Laser On
G4 P50 ; Delay in milliseconds
G1 F50
G1 X20.648 Y20.960
G1 X20.648 Y21.011
G1 X21.344 Y21.011
G1 X21.344 Y20.960
G1 X20.648 Y20.960
G4 P1 ; Pause 1ms to force movement sychronization
M42 P31 S0 ; laser off

G0 F5000
G0 X20.648 Y20.460
G4 P1 ; Pause 1ms to force movement sychronization
M42 P31 S255 ; Laser On
G4 P50 ; Delay in milliseconds
G1 F50
G1 X20.648 Y20.460
G1 X20.648 Y20.511
G1 X21.344 Y20.511
G1 X21.344 Y20.460
G1 X20.648 Y20.460
G4 P1 ; Pause 1ms to force movement sychronization
M42 P31 S0 ; laser off

G0 F5000
G0 X20.648 Y19.959
G4 P1 ; Pause 1ms to force movement sychronization
M42 P31 S255 ; Laser On
G4 P50 ; Delay in milliseconds
G1 F50
G1 X20.648 Y19.959
G1 X20.648 Y20.010
G1 X21.344 Y20.010
G1 X21.344 Y19.959
G1 X20.648 Y19.959
G4 P1 ; Pause 1ms to force movement sychronization
M42 P31 S0 ; laser off

G0 F5000
G0 X20.648 Y19.461
G4 P1 ; Pause 1ms to force movement sychronization
M42 P31 S255 ; Laser On
G4 P50 ; Delay in milliseconds
G1 F50
G1 X20.648 Y19.461
G1 X20.648 Y19.512
G1 X21.344 Y19.512
G1 X21.344 Y19.461
G1 X20.648 Y19.461
G4 P1 ; Pause 1ms to force movement sychronization
M42 P31 S0 ; laser off

G0 F5000
G0 X20.648 Y18.961
G4 P1 ; Pause 1ms to force movement sychronization
M42 P31 S255 ; Laser On
G4 P50 ; Delay in milliseconds
G1 F50
G1 X20.648 Y18.961
G1 X20.648 Y19.012
G1 X21.344 Y19.012
G1 X21.344 Y18.961
G1 X20.648 Y18.961
G4 P1 ; Pause 1ms to force movement sychronization
M42 P31 S0 ; laser off

G0 F5000
G0 X20.648 Y18.461
G4 P1 ; Pause 1ms to force movement sychronization
M42 P31 S255 ; Laser On
G4 P50 ; Delay in milliseconds
G1 F50
G1 X20.648 Y18.461
G1 X20.648 Y18.512
G1 X21.344 Y18.512
G1 X21.344 Y18.461
G1 X20.648 Y18.461
G4 P1 ; Pause 1ms to force movement sychronization
M42 P31 S0 ; laser off

G0 F5000
G0 X20.648 Y17.960
G4 P1 ; Pause 1ms to force movement sychronization
M42 P31 S255 ; Laser On
G4 P50 ; Delay in milliseconds
G1 F50
G1 X20.648 Y17.960
G1 X20.648 Y18.011
G1 X21.344 Y18.011
G1 X21.344 Y17.960
G1 X20.648 Y17.960
G4 P1 ; Pause 1ms to force movement sychronization
M42 P31 S0 ; laser off

G0 F5000
G0 X21.694 Y16.914
G4 P1 ; Pause 1ms to force movement sychronization
M42 P31 S255 ; Laser On
G4 P50 ; Delay in milliseconds
G1 F50
G1 X21.694 Y16.914
G1 X21.694 Y17.610
G1 X21.745 Y17.610
G1 X21.745 Y16.914
G1 X21.694 Y16.914
G4 P1 ; Pause 1ms to force movement sychronization
M42 P31 S0 ; laser off

G0 F5000
G0 X22.195 Y16.914
G4 P1 ; Pause 1ms to force movement sychronization
M42 P31 S255 ; Laser On
G4 P50 ; Delay in milliseconds
G1 F50
G1 X22.195 Y16.914
G1 X22.195 Y17.610
G1 X22.245 Y17.610
G1 X22.245 Y16.914
G1 X22.195 Y16.914
G4 P1 ; Pause 1ms to force movement sychronization
M42 P31 S0 ; laser off

G0 F5000
G0 X22.695 Y16.914
G4 P1 ; Pause 1ms to force movement sychronization
M42 P31 S255 ; Laser On
G4 P50 ; Delay in milliseconds
G1 F50
G1 X22.695 Y16.914
G1 X22.695 Y17.610
G1 X22.746 Y17.610
G1 X22.746 Y16.914
G1 X22.695 Y16.914
G4 P1 ; Pause 1ms to force movement sychronization
M42 P31 S0 ; laser off

G0 F5000
G0 X23.195 Y16.914
G4 P1 ; Pause 1ms to force movement sychronization
M42 P31 S255 ; Laser On
G4 P50 ; Delay in milliseconds
G1 F50
G1 X23.195 Y16.914
G1 X23.195 Y17.610
G1 X23.246 Y17.610
G1 X23.246 Y16.914
G1 X23.195 Y16.914
G4 P1 ; Pause 1ms to force movement sychronization
M42 P31 S0 ; laser off

G0 F5000
G0 X23.693 Y16.914
G4 P1 ; Pause 1ms to force movement sychronization
M42 P31 S255 ; Laser On
G4 P50 ; Delay in milliseconds
G1 F50
G1 X23.693 Y16.914
G1 X23.693 Y17.610
G1 X23.744 Y17.610
G1 X23.744 Y16.914
G1 X23.693 Y16.914
G4 P1 ; Pause 1ms to force movement sychronization
M42 P31 S0 ; laser off

G0 F5000
G0 X24.193 Y16.914
G4 P1 ; Pause 1ms to force movement sychronization
M42 P31 S255 ; Laser On
G4 P50 ; Delay in milliseconds
G1 F50
G1 X24.193 Y16.914
G1 X24.193 Y17.610
G1 X24.244 Y17.610
G1 X24.244 Y16.914
G1 X24.193 Y16.914
G4 P1 ; Pause 1ms to force movement sychronization
M42 P31 S0 ; laser off

G0 F5000
G0 X24.694 Y16.914
G4 P1 ; Pause 1ms to force movement sychronization
M42 P31 S255 ; Laser On
G4 P50 ; Delay in milliseconds
G1 F50
G1 X24.694 Y16.914
G1 X24.694 Y17.610
G1 X24.745 Y17.610
G1 X24.745 Y16.914
G1 X24.694 Y16.914
G4 P1 ; Pause 1ms to force movement sychronization
M42 P31 S0 ; laser off

G0 F5000
G0 X25.194 Y16.914
G4 P1 ; Pause 1ms to force movement sychronization
M42 P31 S255 ; Laser On
G4 P50 ; Delay in milliseconds
G1 F50
G1 X25.194 Y16.914
G1 X25.194 Y17.610
G1 X25.245 Y17.610
G1 X25.245 Y16.914
G1 X25.194 Y16.914
G4 P1 ; Pause 1ms to force movement sychronization
M42 P31 S0 ; laser off

G0 F5000
G0 X25.596 Y17.960
G4 P1 ; Pause 1ms to force movement sychronization
M42 P31 S255 ; Laser On
G4 P50 ; Delay in milliseconds
G1 F50
G1 X25.596 Y17.960
G1 X25.596 Y18.011
G1 X26.292 Y18.011
G1 X26.292 Y17.960
G1 X25.596 Y17.960
G4 P1 ; Pause 1ms to force movement sychronization
M42 P31 S0 ; laser off

G0 F5000
G0 X25.596 Y18.461
G4 P1 ; Pause 1ms to force movement sychronization
M42 P31 S255 ; Laser On
G4 P50 ; Delay in milliseconds
G1 F50
G1 X25.596 Y18.461
G1 X25.596 Y18.512
G1 X26.292 Y18.512
G1 X26.292 Y18.461
G1 X25.596 Y18.461
G4 P1 ; Pause 1ms to force movement sychronization
M42 P31 S0 ; laser off

G0 F5000
G0 X25.596 Y18.961
G4 P1 ; Pause 1ms to force movement sychronization
M42 P31 S255 ; Laser On
G4 P50 ; Delay in milliseconds
G1 F50
G1 X25.596 Y18.961
G1 X25.596 Y19.012
G1 X26.292 Y19.012
G1 X26.292 Y18.961
G1 X25.596 Y18.961
G4 P1 ; Pause 1ms to force movement sychronization
M42 P31 S0 ; laser off

G0 F5000
G0 X25.596 Y19.461
G4 P1 ; Pause 1ms to force movement sychronization
M42 P31 S255 ; Laser On
G4 P50 ; Delay in milliseconds
G1 F50
G1 X25.596 Y19.461
G1 X25.596 Y19.512
G1 X26.292 Y19.512
G1 X26.292 Y19.461
G1 X25.596 Y19.461
G4 P1 ; Pause 1ms to force movement sychronization
M42 P31 S0 ; laser off

G0 F5000
G0 X25.596 Y19.959
G4 P1 ; Pause 1ms to force movement sychronization
M42 P31 S255 ; Laser On
G4 P50 ; Delay in milliseconds
G1 F50
G1 X25.596 Y19.959
G1 X25.596 Y20.010
G1 X26.292 Y20.010
G1 X26.292 Y19.959
G1 X25.596 Y19.959
G4 P1 ; Pause 1ms to force movement sychronization
M42 P31 S0 ; laser off

G0 F5000
G0 X25.596 Y20.460
G4 P1 ; Pause 1ms to force movement sychronization
M42 P31 S255 ; Laser On
G4 P50 ; Delay in milliseconds
G1 F50
G1 X25.596 Y20.460
G1 X25.596 Y20.511
G1 X26.292 Y20.511
G1 X26.292 Y20.460
G1 X25.596 Y20.460
G4 P1 ; Pause 1ms to force movement sychronization
M42 P31 S0 ; laser off

G0 F5000
G0 X25.596 Y20.960
G4 P1 ; Pause 1ms to force movement sychronization
M42 P31 S255 ; Laser On
G4 P50 ; Delay in milliseconds
G1 F50
G1 X25.596 Y20.960
G1 X25.596 Y21.011
G1 X26.292 Y21.011
G1 X26.292 Y20.960
G1 X25.596 Y20.960
G4 P1 ; Pause 1ms to force movement sychronization
M42 P31 S0 ; laser off

G0 F5000
G0 X25.596 Y21.460
G4 P1 ; Pause 1ms to force movement sychronization
M42 P31 S255 ; Laser On
G4 P50 ; Delay in milliseconds
G1 F50
G1 X25.596 Y21.460
G1 X25.596 Y21.511
G1 X26.292 Y21.511
G1 X26.292 Y21.460
G1 X25.596 Y21.460
G4 P1 ; Pause 1ms to force movement sychronization
M42 P31 S0 ; laser off

G0 F5000
G0 X25.194 Y21.862
G4 P1 ; Pause 1ms to force movement sychronization
M42 P31 S255 ; Laser On
G4 P50 ; Delay in milliseconds
G1 F50
G1 X25.194 Y21.862
G1 X25.194 Y22.558
G1 X25.245 Y22.558
G1 X25.245 Y21.862
G1 X25.194 Y21.862
G4 P1 ; Pause 1ms to force movement sychronization
M42 P31 S0 ; laser off

G0 F5000
G0 X24.694 Y21.862
G4 P1 ; Pause 1ms to force movement sychronization
M42 P31 S255 ; Laser On
G4 P50 ; Delay in milliseconds
G1 F50
G1 X24.694 Y21.862
G1 X24.694 Y22.558
G1 X24.745 Y22.558
G1 X24.745 Y21.862
G1 X24.694 Y21.862
G4 P1 ; Pause 1ms to force movement sychronization
M42 P31 S0 ; laser off

G0 F5000
G0 X24.193 Y21.862
G4 P1 ; Pause 1ms to force movement sychronization
M42 P31 S255 ; Laser On
G4 P50 ; Delay in milliseconds
G1 F50
G1 X24.193 Y21.862
G1 X24.193 Y22.558
G1 X24.244 Y22.558
G1 X24.244 Y21.862
G1 X24.193 Y21.862
G4 P1 ; Pause 1ms to force movement sychronization
M42 P31 S0 ; laser off

G0 F5000
G0 X23.693 Y21.862
G4 P1 ; Pause 1ms to force movement sychronization
M42 P31 S255 ; Laser On
G4 P50 ; Delay in milliseconds
G1 F50
G1 X23.693 Y21.862
G1 X23.693 Y22.558
G1 X23.744 Y22.558
G1 X23.744 Y21.862
G1 X23.693 Y21.862
G4 P1 ; Pause 1ms to force movement sychronization
M42 P31 S0 ; laser off

G0 F5000
G0 X23.195 Y21.862
G4 P1 ; Pause 1ms to force movement sychronization
M42 P31 S255 ; Laser On
G4 P50 ; Delay in milliseconds
G1 F50
G1 X23.195 Y21.862
G1 X23.195 Y22.558
G1 X23.246 Y22.558
G1 X23.246 Y21.862
G1 X23.195 Y21.862
G4 P1 ; Pause 1ms to force movement sychronization
M42 P31 S0 ; laser off

G0 F5000
G0 X22.695 Y21.862
G4 P1 ; Pause 1ms to force movement sychronization
M42 P31 S255 ; Laser On
G4 P50 ; Delay in milliseconds
G1 F50
G1 X22.695 Y21.862
G1 X22.695 Y22.558
G1 X22.746 Y22.558
G1 X22.746 Y21.862
G1 X22.695 Y21.862
G4 P1 ; Pause 1ms to force movement sychronization
M42 P31 S0 ; laser off

G0 F5000
G0 X22.195 Y21.862
G4 P1 ; Pause 1ms to force movement sychronization
M42 P31 S255 ; Laser On
G4 P50 ; Delay in milliseconds
G1 F50
G1 X22.195 Y21.862
G1 X22.195 Y22.558
G1 X22.245 Y22.558
G1 X22.245 Y21.862
G1 X22.195 Y21.862
G4 P1 ; Pause 1ms to force movement sychronization
M42 P31 S0 ; laser off

G0 F5000
G0 X21.694 Y21.862
G4 P1 ; Pause 1ms to force movement sychronization
M42 P31 S255 ; Laser On
G4 P50 ; Delay in milliseconds
G1 F50
G1 X21.694 Y21.862
G1 X21.694 Y22.558
G1 X21.745 Y22.558
G1 X21.745 Y21.862
G1 X21.694 Y21.862
G4 P1 ; Pause 1ms to force movement sychronization
M42 P31 S0 ; laser off

G0 F5000
G0 X23.444 Y19.388
G4 P1 ; Pause 1ms to force movement sychronization
M42 P31 S255 ; Laser On
G4 P50 ; Delay in milliseconds
G1 F50
G1 X23.444 Y19.388
G1 X23.444 Y20.084
G1 X23.495 Y20.084
G1 X23.495 Y19.388
G1 X23.444 Y19.388
G4 P1 ; Pause 1ms to force movement sychronization
M42 P31 S0 ; laser off

G0 F5000
G0 X37.015 Y15.653
G4 P1 ; Pause 1ms to force movement sychronization
M42 P31 S255 ; Laser On
G4 P50 ; Delay in milliseconds
G1 F50
G1 X37.015 Y15.653
G1 X37.015 Y16.300
G1 X37.711 Y16.300
G1 X37.711 Y15.653
G1 X37.015 Y15.653
G4 P1 ; Pause 1ms to force movement sychronization
M42 P31 S0 ; laser off

G0 F5000
G0 X37.015 Y16.679
G4 P1 ; Pause 1ms to force movement sychronization
M42 P31 S255 ; Laser On
G4 P50 ; Delay in milliseconds
G1 F50
G1 X37.015 Y16.679
G1 X37.015 Y16.976
G1 X37.711 Y16.976
G1 X37.711 Y16.679
G1 X37.015 Y16.679
G4 P1 ; Pause 1ms to force movement sychronization
M42 P31 S0 ; laser off

G0 F5000
G0 X37.015 Y17.428
G4 P1 ; Pause 1ms to force movement sychronization
M42 P31 S255 ; Laser On
G4 P50 ; Delay in milliseconds
G1 F50
G1 X37.015 Y17.428
G1 X37.015 Y17.725
G1 X37.711 Y17.725
G1 X37.711 Y17.428
G1 X37.015 Y17.428
G4 P1 ; Pause 1ms to force movement sychronization
M42 P31 S0 ; laser off

G0 F5000
G0 X37.015 Y18.178
G4 P1 ; Pause 1ms to force movement sychronization
M42 P31 S255 ; Laser On
G4 P50 ; Delay in milliseconds
G1 F50
G1 X37.015 Y18.178
G1 X37.015 Y18.475
G1 X37.711 Y18.475
G1 X37.711 Y18.178
G1 X37.015 Y18.178
G4 P1 ; Pause 1ms to force movement sychronization
M42 P31 S0 ; laser off

G0 F5000
G0 X37.015 Y18.927
G4 P1 ; Pause 1ms to force movement sychronization
M42 P31 S255 ; Laser On
G4 P50 ; Delay in milliseconds
G1 F50
G1 X37.015 Y18.927
G1 X37.015 Y19.224
G1 X37.711 Y19.224
G1 X37.711 Y18.927
G1 X37.015 Y18.927
G4 P1 ; Pause 1ms to force movement sychronization
M42 P31 S0 ; laser off

G0 F5000
G0 X37.015 Y19.679
G4 P1 ; Pause 1ms to force movement sychronization
M42 P31 S255 ; Laser On
G4 P50 ; Delay in milliseconds
G1 F50
G1 X37.015 Y19.679
G1 X37.015 Y19.976
G1 X37.711 Y19.976
G1 X37.711 Y19.679
G1 X37.015 Y19.679
G4 P1 ; Pause 1ms to force movement sychronization
M42 P31 S0 ; laser off

G0 F5000
G0 X37.015 Y20.428
G4 P1 ; Pause 1ms to force movement sychronization
M42 P31 S255 ; Laser On
G4 P50 ; Delay in milliseconds
G1 F50
G1 X37.015 Y20.428
G1 X37.015 Y20.725
G1 X37.711 Y20.725
G1 X37.711 Y20.428
G1 X37.015 Y20.428
G4 P1 ; Pause 1ms to force movement sychronization
M42 P31 S0 ; laser off

G0 F5000
G0 X37.015 Y21.104
G4 P1 ; Pause 1ms to force movement sychronization
M42 P31 S255 ; Laser On
G4 P50 ; Delay in milliseconds
G1 F50
G1 X37.015 Y21.104
G1 X37.015 Y21.751
G1 X37.711 Y21.751
G1 X37.711 Y21.104
G1 X37.015 Y21.104
G4 P1 ; Pause 1ms to force movement sychronization
M42 P31 S0 ; laser off

G0 F5000
G0 X36.328 Y21.054
G4 P1 ; Pause 1ms to force movement sychronization
M42 P31 S255 ; Laser On
G4 P50 ; Delay in milliseconds
G1 F50
G1 X36.328 Y21.054
G1 X36.328 Y21.750
G1 X36.626 Y21.750
G1 X36.626 Y21.054
G1 X36.328 Y21.054
G4 P1 ; Pause 1ms to force movement sychronization
M42 P31 S0 ; laser off

G0 F5000
G0 X35.602 Y21.054
G4 P1 ; Pause 1ms to force movement sychronization
M42 P31 S255 ; Laser On
G4 P50 ; Delay in milliseconds
G1 F50
G1 X35.602 Y21.054
G1 X35.602 Y21.750
G1 X35.899 Y21.750
G1 X35.899 Y21.054
G1 X35.602 Y21.054
G4 P1 ; Pause 1ms to force movement sychronization
M42 P31 S0 ; laser off

G0 F5000
G0 X34.878 Y21.054
G4 P1 ; Pause 1ms to force movement sychronization
M42 P31 S255 ; Laser On
G4 P50 ; Delay in milliseconds
G1 F50
G1 X34.878 Y21.054
G1 X34.878 Y21.750
G1 X35.175 Y21.750
G1 X35.175 Y21.054
G1 X34.878 Y21.054
G4 P1 ; Pause 1ms to force movement sychronization
M42 P31 S0 ; laser off

G0 F5000
G0 X34.152 Y21.054
G4 P1 ; Pause 1ms to force movement sychronization
M42 P31 S255 ; Laser On
G4 P50 ; Delay in milliseconds
G1 F50
G1 X34.152 Y21.054
G1 X34.152 Y21.750
G1 X34.449 Y21.750
G1 X34.449 Y21.054
G1 X34.152 Y21.054
G4 P1 ; Pause 1ms to force movement sychronization
M42 P31 S0 ; laser off

G0 F5000
G0 X33.428 Y21.054
G4 P1 ; Pause 1ms to force movement sychronization
M42 P31 S255 ; Laser On
G4 P50 ; Delay in milliseconds
G1 F50
G1 X33.428 Y21.054
G1 X33.428 Y21.750
G1 X33.725 Y21.750
G1 X33.725 Y21.054
G1 X33.428 Y21.054
G4 P1 ; Pause 1ms to force movement sychronization
M42 P31 S0 ; laser off

G0 F5000
G0 X32.701 Y21.054
G4 P1 ; Pause 1ms to force movement sychronization
M42 P31 S255 ; Laser On
G4 P50 ; Delay in milliseconds
G1 F50
G1 X32.701 Y21.054
G1 X32.701 Y21.750
G1 X32.998 Y21.750
G1 X32.998 Y21.054
G1 X32.701 Y21.054
G4 P1 ; Pause 1ms to force movement sychronization
M42 P31 S0 ; laser off

G0 F5000
G0 X31.615 Y21.104
G4 P1 ; Pause 1ms to force movement sychronization
M42 P31 S255 ; Laser On
G4 P50 ; Delay in milliseconds
G1 F50
G1 X31.615 Y21.104
G1 X31.615 Y21.751
G1 X32.311 Y21.751
G1 X32.311 Y21.104
G1 X31.615 Y21.104
G4 P1 ; Pause 1ms to force movement sychronization
M42 P31 S0 ; laser off

G0 F5000
G0 X31.615 Y20.428
G4 P1 ; Pause 1ms to force movement sychronization
M42 P31 S255 ; Laser On
G4 P50 ; Delay in milliseconds
G1 F50
G1 X31.615 Y20.428
G1 X31.615 Y20.725
G1 X32.311 Y20.725
G1 X32.311 Y20.428
G1 X31.615 Y20.428
G4 P1 ; Pause 1ms to force movement sychronization
M42 P31 S0 ; laser off

G0 F5000
G0 X31.615 Y19.679
G4 P1 ; Pause 1ms to force movement sychronization
M42 P31 S255 ; Laser On
G4 P50 ; Delay in milliseconds
G1 F50
G1 X31.615 Y19.679
G1 X31.615 Y19.976
G1 X32.311 Y19.976
G1 X32.311 Y19.679
G1 X31.615 Y19.679
G4 P1 ; Pause 1ms to force movement sychronization
M42 P31 S0 ; laser off

G0 F5000
G0 X31.615 Y18.927
G4 P1 ; Pause 1ms to force movement sychronization
M42 P31 S255 ; Laser On
G4 P50 ; Delay in milliseconds
G1 F50
G1 X31.615 Y18.927
G1 X31.615 Y19.224
G1 X32.311 Y19.224
G1 X32.311 Y18.927
G1 X31.615 Y18.927
G4 P1 ; Pause 1ms to force movement sychronization
M42 P31 S0 ; laser off

G0 F5000
G0 X31.615 Y18.178
G4 P1 ; Pause 1ms to force movement sychronization
M42 P31 S255 ; Laser On
G4 P50 ; Delay in milliseconds
G1 F50
G1 X31.615 Y18.178
G1 X31.615 Y18.475
G1 X32.311 Y18.475
G1 X32.311 Y18.178
G1 X31.615 Y18.178
G4 P1 ; Pause 1ms to force movement sychronization
M42 P31 S0 ; laser off

G0 F5000
G0 X31.615 Y17.428
G4 P1 ; Pause 1ms to force movement sychronization
M42 P31 S255 ; Laser On
G4 P50 ; Delay in milliseconds
G1 F50
G1 X31.615 Y17.428
G1 X31.615 Y17.725
G1 X32.311 Y17.725
G1 X32.311 Y17.428
G1 X31.615 Y17.428
G4 P1 ; Pause 1ms to force movement sychronization
M42 P31 S0 ; laser off

G0 F5000
G0 X31.615 Y16.679
G4 P1 ; Pause 1ms to force movement sychronization
M42 P31 S255 ; Laser On
G4 P50 ; Delay in milliseconds
G1 F50
G1 X31.615 Y16.679
G1 X31.615 Y16.976
G1 X32.311 Y16.976
G1 X32.311 Y16.679
G1 X31.615 Y16.679
G4 P1 ; Pause 1ms to force movement sychronization
M42 P31 S0 ; laser off

G0 F5000
G0 X31.615 Y15.653
G4 P1 ; Pause 1ms to force movement sychronization
M42 P31 S255 ; Laser On
G4 P50 ; Delay in milliseconds
G1 F50
G1 X31.615 Y15.653
G1 X31.615 Y16.300
G1 X32.311 Y16.300
G1 X32.311 Y15.653
G1 X31.615 Y15.653
G4 P1 ; Pause 1ms to force movement sychronization
M42 P31 S0 ; laser off

G0 F5000
G0 X32.701 Y15.654
G4 P1 ; Pause 1ms to force movement sychronization
M42 P31 S255 ; Laser On
G4 P50 ; Delay in milliseconds
G1 F50
G1 X32.701 Y15.654
G1 X32.701 Y16.350
G1 X32.998 Y16.350
G1 X32.998 Y15.654
G1 X32.701 Y15.654
G4 P1 ; Pause 1ms to force movement sychronization
M42 P31 S0 ; laser off

G0 F5000
G0 X33.428 Y15.654
G4 P1 ; Pause 1ms to force movement sychronization
M42 P31 S255 ; Laser On
G4 P50 ; Delay in milliseconds
G1 F50
G1 X33.428 Y15.654
G1 X33.428 Y16.350
G1 X33.725 Y16.350
G1 X33.725 Y15.654
G1 X33.428 Y15.654
G4 P1 ; Pause 1ms to force movement sychronization
M42 P31 S0 ; laser off

G0 F5000
G0 X34.152 Y15.654
G4 P1 ; Pause 1ms to force movement sychronization
M42 P31 S255 ; Laser On
G4 P50 ; Delay in milliseconds
G1 F50
G1 X34.152 Y15.654
G1 X34.152 Y16.350
G1 X34.449 Y16.350
G1 X34.449 Y15.654
G1 X34.152 Y15.654
G4 P1 ; Pause 1ms to force movement sychronization
M42 P31 S0 ; laser off

G0 F5000
G0 X34.878 Y15.654
G4 P1 ; Pause 1ms to force movement sychronization
M42 P31 S255 ; Laser On
G4 P50 ; Delay in milliseconds
G1 F50
G1 X34.878 Y15.654
G1 X34.878 Y16.350
G1 X35.175 Y16.350
G1 X35.175 Y15.654
G1 X34.878 Y15.654
G4 P1 ; Pause 1ms to force movement sychronization
M42 P31 S0 ; laser off

G0 F5000
G0 X35.602 Y15.654
G4 P1 ; Pause 1ms to force movement sychronization
M42 P31 S255 ; Laser On
G4 P50 ; Delay in milliseconds
G1 F50
G1 X35.602 Y15.654
G1 X35.602 Y16.350
G1 X35.899 Y16.350
G1 X35.899 Y15.654
G1 X35.602 Y15.654
G4 P1 ; Pause 1ms to force movement sychronization
M42 P31 S0 ; laser off

G0 F5000
G0 X36.328 Y15.654
G4 P1 ; Pause 1ms to force movement sychronization
M42 P31 S255 ; Laser On
G4 P50 ; Delay in milliseconds
G1 F50
G1 X36.328 Y15.654
G1 X36.328 Y16.350
G1 X36.626 Y16.350
G1 X36.626 Y15.654
G1 X36.328 Y15.654
G4 P1 ; Pause 1ms to force movement sychronization
M42 P31 S0 ; laser off

G0 F5000
G0 X32.827 Y16.866
G4 P1 ; Pause 1ms to force movement sychronization
M42 P31 S255 ; Laser On
G4 P50 ; Delay in milliseconds
G1 F50
G1 X32.827 Y16.866
G1 X32.827 Y20.538
G1 X36.500 Y20.538
G1 X36.500 Y16.866
G1 X32.827 Y16.866
G4 P1 ; Pause 1ms to force movement sychronization
M42 P31 S0 ; laser off

G0 F5000
G0 X27.207 Y19.027
G4 P1 ; Pause 1ms to force movement sychronization
M42 P31 S255 ; Laser On
G4 P50 ; Delay in milliseconds
G1 F50
G1 X27.207 Y19.027
G1 X27.207 Y19.378
G1 X27.708 Y19.378
G1 X27.708 Y19.027
G1 X27.207 Y19.027
G4 P1 ; Pause 1ms to force movement sychronization
M42 P31 S0 ; laser off

G0 F5000
G0 X27.207 Y19.627
G4 P1 ; Pause 1ms to force movement sychronization
M42 P31 S255 ; Laser On
G4 P50 ; Delay in milliseconds
G1 F50
G1 X27.207 Y19.627
G1 X27.207 Y19.977
G1 X27.708 Y19.977
G1 X27.708 Y19.627
G1 X27.207 Y19.627
G4 P1 ; Pause 1ms to force movement sychronization
M42 P31 S0 ; laser off

G0 F5000
G0 X28.583 Y19.862
G4 P1 ; Pause 1ms to force movement sychronization
M42 P31 S255 ; Laser On
G4 P50 ; Delay in milliseconds
G1 F50
G1 X28.583 Y19.862
G1 X28.583 Y20.362
G1 X28.933 Y20.362
G1 X28.933 Y19.862
G1 X28.583 Y19.862
G4 P1 ; Pause 1ms to force movement sychronization
M42 P31 S0 ; laser off

G0 F5000
G0 X29.182 Y19.862
G4 P1 ; Pause 1ms to force movement sychronization
M42 P31 S255 ; Laser On
G4 P50 ; Delay in milliseconds
G1 F50
G1 X29.182 Y19.862
G1 X29.182 Y20.362
G1 X29.533 Y20.362
G1 X29.533 Y19.862
G1 X29.182 Y19.862
G4 P1 ; Pause 1ms to force movement sychronization
M42 P31 S0 ; laser off

G0 F5000
G0 X28.807 Y18.341
G4 P1 ; Pause 1ms to force movement sychronization
M42 P31 S255 ; Laser On
G4 P50 ; Delay in milliseconds
G1 F50
G1 X28.807 Y18.341
G1 X28.807 Y18.692
G1 X29.308 Y18.692
G1 X29.308 Y18.341
G1 X28.807 Y18.341
G4 P1 ; Pause 1ms to force movement sychronization
M42 P31 S0 ; laser off

G0 F5000
G0 X28.807 Y17.742
G4 P1 ; Pause 1ms to force movement sychronization
M42 P31 S255 ; Laser On
G4 P50 ; Delay in milliseconds
G1 F50
G1 X28.807 Y17.742
G1 X28.807 Y18.092
G1 X29.308 Y18.092
G1 X29.308 Y17.742
G1 X28.807 Y17.742
G4 P1 ; Pause 1ms to force movement sychronization
M42 P31 S0 ; laser off

G0 F5000
G0 X29.949 Y19.003
G4 P1 ; Pause 1ms to force movement sychronization
M42 P31 S255 ; Laser On
G4 P50 ; Delay in milliseconds
G1 F50
G1 X29.949 Y19.003
G1 X29.949 Y19.503
G1 X30.300 Y19.503
G1 X30.300 Y19.003
G1 X29.949 Y19.003
G4 P1 ; Pause 1ms to force movement sychronization
M42 P31 S0 ; laser off

G0 F5000
G0 X30.549 Y19.003
G4 P1 ; Pause 1ms to force movement sychronization
M42 P31 S255 ; Laser On
G4 P50 ; Delay in milliseconds
G1 F50
G1 X30.549 Y19.003
G1 X30.549 Y19.503
G1 X30.899 Y19.503
G1 X30.899 Y19.003
G1 X30.549 Y19.003
G4 P1 ; Pause 1ms to force movement sychronization
M42 P31 S0 ; laser off

G0 F5000
G0 X27.918 Y16.005
G4 P1 ; Pause 1ms to force movement sychronization
M42 P31 S255 ; Laser On
G4 P50 ; Delay in milliseconds
G1 F50
G1 X27.918 Y16.005
G1 X27.918 Y16.355
G1 X28.419 Y16.355
G1 X28.419 Y16.005
G1 X27.918 Y16.005
G4 P1 ; Pause 1ms to force movement sychronization
M42 P31 S0 ; laser off

G0 F5000
G0 X27.918 Y15.405
G4 P1 ; Pause 1ms to force movement sychronization
M42 P31 S255 ; Laser On
G4 P50 ; Delay in milliseconds
G1 F50
G1 X27.918 Y15.405
G1 X27.918 Y15.756
G1 X28.419 Y15.756
G1 X28.419 Y15.405
G1 X27.918 Y15.405
G4 P1 ; Pause 1ms to force movement sychronization
M42 P31 S0 ; laser off

G0 F5000
G0 X27.004 Y16.665
G4 P1 ; Pause 1ms to force movement sychronization
M42 P31 S255 ; Laser On
G4 P50 ; Delay in milliseconds
G1 F50
G1 X27.004 Y16.665
G1 X27.004 Y17.015
G1 X27.504 Y17.015
G1 X27.504 Y16.665
G1 X27.004 Y16.665
G4 P1 ; Pause 1ms to force movement sychronization
M42 P31 S0 ; laser off

G0 F5000
G0 X27.004 Y17.264
G4 P1 ; Pause 1ms to force movement sychronization
M42 P31 S255 ; Laser On
G4 P50 ; Delay in milliseconds
G1 F50
G1 X27.004 Y17.264
G1 X27.004 Y17.615
G1 X27.504 Y17.615
G1 X27.504 Y17.264
G1 X27.004 Y17.264
G4 P1 ; Pause 1ms to force movement sychronization
M42 P31 S0 ; laser off

G0 F5000
G0 X29.695 Y15.447
G4 P1 ; Pause 1ms to force movement sychronization
M42 P31 S255 ; Laser On
G4 P50 ; Delay in milliseconds
G1 F50
G1 X29.695 Y15.447
G1 X29.695 Y15.947
G1 X30.046 Y15.947
G1 X30.046 Y15.447
G1 X29.695 Y15.447
G4 P1 ; Pause 1ms to force movement sychronization
M42 P31 S0 ; laser off

G0 F5000
G0 X30.295 Y15.447
G4 P1 ; Pause 1ms to force movement sychronization
M42 P31 S255 ; Laser On
G4 P50 ; Delay in milliseconds
G1 F50
G1 X30.295 Y15.447
G1 X30.295 Y15.947
G1 X30.645 Y15.947
G1 X30.645 Y15.447
G1 X30.295 Y15.447
G4 P1 ; Pause 1ms to force movement sychronization
M42 P31 S0 ; laser off

G0 F5000
G0 X38.611 Y20.349
G4 P1 ; Pause 1ms to force movement sychronization
M42 P31 S255 ; Laser On
G4 P50 ; Delay in milliseconds
G1 F50
G1 X38.611 Y20.349
G1 X38.611 Y20.850
G1 X38.961 Y20.850
G1 X38.961 Y20.349
G1 X38.611 Y20.349
G4 P1 ; Pause 1ms to force movement sychronization
M42 P31 S0 ; laser off

G0 F5000
G0 X39.210 Y20.349
G4 P1 ; Pause 1ms to force movement sychronization
M42 P31 S255 ; Laser On
G4 P50 ; Delay in milliseconds
G1 F50
G1 X39.210 Y20.349
G1 X39.210 Y20.850
G1 X39.560 Y20.850
G1 X39.560 Y20.349
G1 X39.210 Y20.349
G4 P1 ; Pause 1ms to force movement sychronization
M42 P31 S0 ; laser off

G0 F5000
G0 X42.960 Y19.794
G4 P1 ; Pause 1ms to force movement sychronization
M42 P31 S255 ; Laser On
G4 P50 ; Delay in milliseconds
G1 F50
G1 X42.960 Y19.794
G1 X42.960 Y20.145
G1 X43.461 Y20.145
G1 X43.461 Y19.794
G1 X42.960 Y19.794
G4 P1 ; Pause 1ms to force movement sychronization
M42 P31 S0 ; laser off

G0 F5000
G0 X42.960 Y20.394
G4 P1 ; Pause 1ms to force movement sychronization
M42 P31 S255 ; Laser On
G4 P50 ; Delay in milliseconds
G1 F50
G1 X42.960 Y20.394
G1 X42.960 Y20.744
G1 X43.461 Y20.744
G1 X43.461 Y20.394
G1 X42.960 Y20.394
G4 P1 ; Pause 1ms to force movement sychronization
M42 P31 S0 ; laser off

G0 F5000
G0 X39.933 Y20.348
G4 P1 ; Pause 1ms to force movement sychronization
M42 P31 S255 ; Laser On
G4 P50 ; Delay in milliseconds
G1 F50
G1 X39.933 Y20.348
G1 X39.933 Y20.698
G1 X40.433 Y20.698
G1 X40.433 Y20.348
G1 X39.933 Y20.348
G4 P1 ; Pause 1ms to force movement sychronization
M42 P31 S0 ; laser off

G0 F5000
G0 X39.933 Y19.748
G4 P1 ; Pause 1ms to force movement sychronization
M42 P31 S255 ; Laser On
G4 P50 ; Delay in milliseconds
G1 F50
G1 X39.933 Y19.748
G1 X39.933 Y20.099
G1 X40.433 Y20.099
G1 X40.433 Y19.748
G1 X39.933 Y19.748
G4 P1 ; Pause 1ms to force movement sychronization
M42 P31 S0 ; laser off

G0 F5000
G0 X40.820 Y19.714
G4 P1 ; Pause 1ms to force movement sychronization
M42 P31 S255 ; Laser On
G4 P50 ; Delay in milliseconds
G1 F50
G1 X40.820 Y19.714
G1 X40.820 Y20.215
G1 X41.171 Y20.215
G1 X41.171 Y19.714
G1 X40.820 Y19.714
G4 P1 ; Pause 1ms to force movement sychronization
M42 P31 S0 ; laser off

G0 F5000
G0 X41.420 Y19.714
G4 P1 ; Pause 1ms to force movement sychronization
M42 P31 S255 ; Laser On
G4 P50 ; Delay in milliseconds
G1 F50
G1 X41.420 Y19.714
G1 X41.420 Y20.215
G1 X41.770 Y20.215
G1 X41.770 Y19.714
G1 X41.420 Y19.714
G4 P1 ; Pause 1ms to force movement sychronization
M42 P31 S0 ; laser off

G0 F5000
G0 X42.122 Y19.794
G4 P1 ; Pause 1ms to force movement sychronization
M42 P31 S255 ; Laser On
G4 P50 ; Delay in milliseconds
G1 F50
G1 X42.122 Y19.794
G1 X42.122 Y20.145
G1 X42.622 Y20.145
G1 X42.622 Y19.794
G1 X42.122 Y19.794
G4 P1 ; Pause 1ms to force movement sychronization
M42 P31 S0 ; laser off

G0 F5000
G0 X42.122 Y20.394
G4 P1 ; Pause 1ms to force movement sychronization
M42 P31 S255 ; Laser On
G4 P50 ; Delay in milliseconds
G1 F50
G1 X42.122 Y20.394
G1 X42.122 Y20.744
G1 X42.622 Y20.744
G1 X42.622 Y20.394
G1 X42.122 Y20.394
G4 P1 ; Pause 1ms to force movement sychronization
M42 P31 S0 ; laser off

G0 F5000
G0 X30.230 Y16.259
G4 P1 ; Pause 1ms to force movement sychronization
M42 P31 S255 ; Laser On
G4 P50 ; Delay in milliseconds
G1 F50
G1 X30.230 Y16.259
G1 X30.230 Y16.609
G1 X30.730 Y16.609
G1 X30.730 Y16.259
G1 X30.230 Y16.259
G4 P1 ; Pause 1ms to force movement sychronization
M42 P31 S0 ; laser off

G0 F5000
G0 X30.230 Y16.858
G4 P1 ; Pause 1ms to force movement sychronization
M42 P31 S255 ; Laser On
G4 P50 ; Delay in milliseconds
G1 F50
G1 X30.230 Y16.858
G1 X30.230 Y17.209
G1 X30.730 Y17.209
G1 X30.730 Y16.858
G1 X30.230 Y16.858
G4 P1 ; Pause 1ms to force movement sychronization
M42 P31 S0 ; laser off

G0 F5000
G0 X24.310 Y14.507
G4 P1 ; Pause 1ms to force movement sychronization
M42 P31 S255 ; Laser On
G4 P50 ; Delay in milliseconds
G1 F50
G1 X24.310 Y14.507
G1 X24.310 Y15.008
G1 X24.661 Y15.008
G1 X24.661 Y14.507
G1 X24.310 Y14.507
G4 P1 ; Pause 1ms to force movement sychronization
M42 P31 S0 ; laser off

G0 F5000
G0 X23.711 Y14.507
G4 P1 ; Pause 1ms to force movement sychronization
M42 P31 S255 ; Laser On
G4 P50 ; Delay in milliseconds
G1 F50
G1 X23.711 Y14.507
G1 X23.711 Y15.008
G1 X24.061 Y15.008
G1 X24.061 Y14.507
G1 X23.711 Y14.507
G4 P1 ; Pause 1ms to force movement sychronization
M42 P31 S0 ; laser off

G0 F5000
G0 X44.145 Y17.323
G4 P1 ; Pause 1ms to force movement sychronization
M42 P31 S255 ; Laser On
G4 P50 ; Delay in milliseconds
G1 F50
G1 X44.145 Y17.323
G1 X44.145 Y18.847
G1 X48.209 Y18.847
G1 X48.209 Y17.323
G1 X44.145 Y17.323
G4 P1 ; Pause 1ms to force movement sychronization
M42 P31 S0 ; laser off

G0 F5000
G0 X44.145 Y19.863
G4 P1 ; Pause 1ms to force movement sychronization
M42 P31 S255 ; Laser On
G4 P50 ; Delay in milliseconds
G1 F50
G1 X44.145 Y19.863
G1 X44.145 Y21.387
G1 X48.209 Y21.387
G1 X48.209 Y19.863
G1 X44.145 Y19.863
G4 P1 ; Pause 1ms to force movement sychronization
M42 P31 S0 ; laser off

G0 F5000
G0 X44.145 Y22.403
G4 P1 ; Pause 1ms to force movement sychronization
M42 P31 S255 ; Laser On
G4 P50 ; Delay in milliseconds
G1 F50
G1 X44.145 Y22.403
G1 X44.145 Y23.927
G1 X48.209 Y23.927
G1 X48.209 Y22.403
G1 X44.145 Y22.403
G4 P1 ; Pause 1ms to force movement sychronization
M42 P31 S0 ; laser off

G0 F5000
G0 X22.048 Y24.953
G4 P1 ; Pause 1ms to force movement sychronization
M42 P31 S255 ; Laser On
G4 P50 ; Delay in milliseconds
G1 F50
G1 X22.048 Y24.953
G1 X22.048 Y25.949
G1 X23.245 Y25.949
G1 X23.245 Y24.953
G1 X22.048 Y24.953
G4 P1 ; Pause 1ms to force movement sychronization
M42 P31 S0 ; laser off

G0 F5000
G0 X19.849 Y24.953
G4 P1 ; Pause 1ms to force movement sychronization
M42 P31 S255 ; Laser On
G4 P50 ; Delay in milliseconds
G1 F50
G1 X19.849 Y24.953
G1 X19.849 Y25.949
G1 X21.045 Y25.949
G1 X21.045 Y24.953
G1 X19.849 Y24.953
G4 P1 ; Pause 1ms to force movement sychronization
M42 P31 S0 ; laser off

G0 F5000
G0 X19.849 Y26.553
G4 P1 ; Pause 1ms to force movement sychronization
M42 P31 S255 ; Laser On
G4 P50 ; Delay in milliseconds
G1 F50
G1 X19.849 Y26.553
G1 X19.849 Y27.549
G1 X21.045 Y27.549
G1 X21.045 Y26.553
G1 X19.849 Y26.553
G4 P1 ; Pause 1ms to force movement sychronization
M42 P31 S0 ; laser off

G0 F5000
G0 X22.048 Y26.553
G4 P1 ; Pause 1ms to force movement sychronization
M42 P31 S255 ; Laser On
G4 P50 ; Delay in milliseconds
G1 F50
G1 X22.048 Y26.553
G1 X22.048 Y27.549
G1 X23.245 Y27.549
G1 X23.245 Y26.553
G1 X22.048 Y26.553
G4 P1 ; Pause 1ms to force movement sychronization
M42 P31 S0 ; laser off

G0 F5000

; End Code 
G4 P1 ; Pause 1ms to force movement sychronization
M42 P31 S0 ; laser off
M42 P9 S0 ; Un-Power Vreg
M84 ; disable motors
